assets/img/logo/full-foreground.svg

<?xml version="1.0" encoding="UTF-8"?>
<svg width="155px" height="82px" viewBox="0 0 155 82" version="1.1" xmlns="http://www.w3.org/2000/svg" xmlns:xlink="http://www.w3.org/1999/xlink">
    <!-- Generator: Sketch 54.1 (76490) - https://sketchapp.com -->
    <title>Logo</title>
    <desc>Created with Sketch.</desc>
    <g id="Page-1" stroke="none" stroke-width="1" fill="none" fill-rule="evenodd">
        <g id="001" transform="translate(-100.000000, -60.000000)" fill="#615ACB">
            <g id="Logo" transform="translate(100.000000, 59.000000)">
                <g id="nekuno">
                    <g transform="translate(0.000000, 0.227679)">
                        <path d="M77.7348429,6.87543977 C77.7011527,6.9427752 77.6609417,7.00795589 77.6152969,7.06882712 C73.5078049,12.5650143 70.8174764,19.1978235 69.8361123,26.2497285 L69.4541085,28.9948593 L69.207409,26.2346453 C69.1460059,25.5440532 69.1144892,24.843226 69.1144892,24.1515565 C69.1144892,17.3749188 72.0775999,10.9408837 77.2436175,6.49943872 L78.4325569,5.47755623 L77.7348429,6.87543977 Z M76.8540062,18.2723654 C74.4495013,24.2253561 73.3263123,30.7816723 73.6072454,37.2313291 L73.6550638,38.3323981 L73.0296208,37.4214844 C72.782378,37.0605665 72.5421992,36.6894136 72.3166919,36.3182607 C71.4184667,34.8384973 71.0190744,33.1303321 71.1619862,31.3774562 C71.5581182,26.5152994 72.6720696,21.7883522 74.4739539,17.3275146 C76.7192453,11.7699175 80.0741409,6.66427586 84.1772858,2.56274012 C84.3076996,2.43291741 84.4663697,2.33272229 84.6369945,2.27238975 C85.8340847,1.85060061 87.0735594,1.52361976 88.3206416,1.30060481 L88.8879417,1.19933233 L88.6694986,1.72831947 C88.5934239,1.91308789 88.4717043,2.07954107 88.3173813,2.20990247 C83.3703502,6.39978229 79.4063134,11.9541473 76.8540062,18.2723654 Z M81.465765,19.9783758 C78.5798158,27.0857652 77.5826934,34.7684684 78.581446,42.1963744 L78.6846902,42.9650757 L78.0712019,42.4840314 C77.5327015,42.0617036 77.0083292,41.6124416 76.5127567,41.1486351 C76.0552215,40.7203818 75.7808091,40.1466839 75.7400548,39.5320461 C75.2814329,32.6395915 76.4388555,25.5499787 79.0867995,19.0292156 C81.9711186,11.9266744 86.5269082,5.70595801 92.2613126,1.03934334 C92.553657,0.814712348 92.6248412,0.78993291 92.95957,0.78993291 C93.7925883,0.799629212 94.6299537,0.852958873 95.4510174,0.948305842 C95.5716502,0.962311612 95.6727209,1.03234046 95.7281468,1.14115451 C95.7824859,1.24781384 95.7792255,1.36740156 95.7199959,1.46867405 C95.6335967,1.61735068 95.5183979,1.74501865 95.378203,1.84844588 C89.2596211,6.36369049 84.4489812,12.6328884 81.465765,19.9783758 Z M90.2844564,16.0648406 C90.6599396,16.0648406 90.9973853,16.2189041 91.2353906,16.5000968 C91.4554639,16.7597423 91.5603383,17.0894165 91.5304518,17.4277097 C91.5005653,17.7660029 91.340265,18.0725138 91.0783506,18.2906806 C89.9692897,19.2145227 88.7955653,19.9605993 87.660965,20.6818964 C87.2528784,20.9410031 86.8779387,21.2060354 86.5154969,21.46191 C86.0547014,21.7872748 85.6194453,22.0948631 85.1043107,22.4056834 C84.7847968,22.5979934 84.5277729,22.6879536 84.2952016,22.6879536 C83.8909187,22.6879536 83.518696,22.5053399 83.27417,22.1869779 C83.0665947,21.9176362 82.978022,21.5836525 83.0236668,21.2469753 C83.0693117,20.9102982 83.2442835,20.6113289 83.5165224,20.4060905 C84.1919573,19.8964959 84.8880411,19.4445405 85.5618459,19.008207 C85.8047416,18.8509114 86.0449204,18.6952319 86.2818388,18.538475 C87.5419624,17.7040543 87.8413708,17.5058188 89.409597,16.3589618 C89.6693379,16.1693452 89.9796141,16.0648406 90.2844564,16.0648406 Z M81.6287823,27.9600484 C81.742351,27.6400704 81.9754657,27.3831184 82.2846552,27.2371352 C87.6935685,24.6740794 92.5906075,21.2599037 96.8393812,17.0894165 C97.0811902,16.8523958 97.4012474,16.7214957 97.7414102,16.7214957 C98.0864634,16.7214957 98.409781,16.8550892 98.6526768,17.0980355 C99.1504228,17.595779 99.1460757,18.4021881 98.6439825,18.8950834 C94.1908938,23.2664996 89.0591099,26.844435 83.3904557,29.5303106 C83.2160272,29.6127292 83.0307309,29.6547465 82.8389139,29.6547465 C82.3471451,29.6547465 81.8928703,29.3708603 81.6809478,28.9312947 C81.5331455,28.6253225 81.5146702,28.2800264 81.6287823,27.9600484 Z M82.3319302,36.1431886 C82.188475,36.1959796 82.0390425,36.2223751 81.8879798,36.2223751 C81.3532831,36.2223751 80.8702086,35.8883913 80.6854557,35.3906478 C80.566453,35.0722859 80.5800378,34.7269898 80.723493,34.4188629 C80.8664048,34.110736 81.122342,33.87587 81.443486,33.758437 C88.8330593,31.0531687 95.8846434,26.2023243 102.403161,19.3405746 C102.64823,19.0825453 102.979699,18.9408715 103.336707,18.9408715 C103.664371,18.9408715 103.976821,19.0636913 104.21537,19.2867063 C104.729961,19.7672119 104.754414,20.5730824 104.269709,21.0832156 C97.4773222,28.2336996 90.0964432,33.3005561 82.3319302,36.1431886 Z M109.353674,23.5449989 C102.17059,32.3083012 92.8514352,38.6970868 82.4036578,42.0196863 C82.2759609,42.0606262 82.1444603,42.0810962 82.0118729,42.0810962 C81.4527236,42.0810962 80.962585,41.7261038 80.7914169,41.198194 C80.6870858,40.8755226 80.7158855,40.5313039 80.8723821,40.2291025 C81.0288787,39.9269011 81.2945969,39.7033475 81.6200881,39.5999202 C91.5929418,36.4276134 100.494772,30.3210979 107.363777,21.941877 C107.608303,21.643985 107.971288,21.4726837 108.359812,21.4726837 C108.657047,21.4726837 108.93635,21.5707241 109.167291,21.7571086 C109.432466,21.9715046 109.5982,22.275322 109.633521,22.6130766 C109.668841,22.9508311 109.569401,23.2821214 109.353674,23.5449989 Z M113.683957,26.7162283 C110.465996,31.0111514 106.70573,34.8180273 102.504232,38.0345062 C98.3146876,41.2429047 93.7703092,43.8011124 88.9977067,45.6374843 C88.0973079,45.9843964 87.1545247,46.1600072 86.1954397,46.1600072 C85.1733213,46.1600072 84.1838065,45.961233 83.2529778,45.5685328 L82.8400007,45.394538 L83.1442996,45.0675572 C83.3029698,44.8967945 83.5072848,44.7728973 83.7349656,44.7093327 C94.5669204,41.6830091 104.476197,34.7485372 111.637546,25.1842126 C111.719598,25.0721665 111.803281,24.9574269 111.886963,24.8421486 C112.127142,24.509781 112.517296,24.3115454 112.930273,24.3115454 C113.228052,24.3115454 113.508441,24.4112019 113.741556,24.5997411 C114.255604,25.015066 114.342546,25.8101628 113.935547,26.3714709 C113.861102,26.4738208 113.786658,26.5761706 113.711126,26.6790592 L113.442148,26.5120673 L113.699172,26.6952197 L113.683957,26.7162283 Z M114.752263,30.0889254 C114.929952,29.9887303 115.152199,30.0485241 115.278266,30.2133612 C115.325541,30.2753098 115.396181,30.4040552 115.347276,30.5758952 L115.326627,30.6496948 C114.391995,33.8559387 112.537402,36.8230071 109.963359,39.2319995 C108.166909,40.9132305 106.256346,42.4737964 104.28438,43.8706026 C101.366371,45.937531 98.0565769,47.179735 94.7130925,47.4625438 C94.6978776,47.4630825 94.6745118,47.4641598 94.6381046,47.4641598 C94.3908617,47.4641598 94.1235134,47.4350709 94.0137484,47.2185202 C93.9697337,47.1317921 93.9653866,47.029981 94.0017938,46.9394822 C94.047982,46.8242039 94.1572036,46.7326277 94.327285,46.6685244 C102.368927,42.9758494 109.292271,37.3670774 114.349611,30.4471499 C114.457745,30.2990119 114.59305,30.1783468 114.752263,30.0889254 Z M116.243328,23.6301109 L116.259086,24.3077747 L115.728193,23.8805987 C108.39948,17.9857858 99.3574548,14.3674491 90.2681547,13.6919401 C89.5834821,13.6413038 89.0297668,13.069222 89.0335705,12.4168763 C89.0373742,11.7187426 89.6117385,11.1504316 90.3132562,11.1504316 C90.3447728,11.1504316 90.3768329,11.1520476 90.4094363,11.1542024 C94.7272207,11.4698709 99.0395711,12.4066414 103.226398,13.9381184 C107.400184,15.4647473 111.35933,17.5489135 114.994072,20.132978 C115.66842,20.6124062 116.094982,21.3525573 116.164536,22.1638146 C116.205834,22.648091 116.23246,23.1409863 116.243328,23.6301109 Z M93.8567084,6.51990869 C93.9338699,6.51990869 94.0126616,6.52691158 94.0898231,6.54091735 C101.426687,7.87200414 107.439308,10.0008811 112.470565,13.048752 C113.430193,13.6299915 114.184963,14.515587 114.595767,15.5412403 C114.839206,16.1494139 115.059822,16.7769801 115.251096,17.4067011 L115.542354,18.3644802 L114.75172,17.7433782 C109.189027,13.3725008 102.689528,10.6914733 93.6784762,9.05064351 C93.0003243,8.92674632 92.5101857,8.29864142 92.5851736,7.64952787 C92.6596182,7.00526248 93.2062695,6.51990869 93.8567084,6.51990869 Z M98.2462203,5.09616835 C97.5653515,4.96580696 97.0779298,4.33123786 97.1610687,3.68212432 C97.2414905,3.04593917 97.7881418,2.5665109 98.43206,2.5665109 C98.5130253,2.5665109 98.5950773,2.57459116 98.6754992,2.58967429 C98.9640398,2.64515869 99.2498634,2.70118177 99.5335135,2.75935958 C102.126032,3.2888854 104.549555,4.28491109 106.73779,5.72050246 C108.031604,6.56946757 109.217827,7.55795169 110.262767,8.65902065 L111.654392,10.125317 L109.87859,9.14814521 C107.511036,7.84506996 104.049092,6.20693361 98.2462203,5.09616835 Z M0.516624055,78.0005025 L4.21870912,78.0005025 L4.21870912,63.0498488 L0.516624055,63.0498488 L0.516624055,59.5677344 L8.53850399,59.5677344 L8.53850399,62.640555 C10.8528289,60.5920079 13.7326921,59.0046956 17.0236663,59.0046956 C20.9824348,59.0046956 23.5033586,61.3607325 23.5033586,65.9668469 L23.5033586,77.9984249 L27.2576151,77.9984249 L27.2576151,81.4805393 L15.3792226,81.4805393 L15.3792226,77.9984249 L19.1334791,77.9984249 L19.1334791,66.4280816 C19.1334791,64.0221815 18.2590859,62.5366733 15.6880775,62.5366733 C13.0648977,62.5366733 10.5460608,64.1239856 8.64284686,65.7112979 L8.64284686,77.9984249 L12.3449319,77.9984249 L12.3449319,81.4805393 L0.516624055,81.4805393 L0.516624055,78.0005025 Z M28.6683307,70.5771165 C28.6683307,63.7687102 32.5770146,59.0067732 39.1589629,59.0067732 C46.0497662,59.0067732 48.9296294,64.331749 48.9296294,69.8603328 C48.9296294,70.4753124 48.9296294,71.1401553 48.8273734,71.8049982 L33.0903816,71.8049982 C33.5014925,76.1057004 35.9702448,78.6134045 40.4966386,78.6134045 C43.3243304,78.6134045 45.7930827,77.589131 47.7484681,76.5149942 L47.7484681,79.9971087 C45.8974256,81.073323 43.3264172,82.0456557 39.8810156,82.0456557 C32.5248432,82.0456557 28.6683307,77.2837188 28.6683307,70.5771165 Z M33.0903816,68.6303735 L44.8164334,68.6303735 C44.6098345,65.5076898 43.2220744,62.2811243 39.2111344,62.2811243 C35.4568779,62.2832019 33.5014925,65.0983959 33.0903816,68.6303735 Z M51.1709143,78.0005025 L54.9251708,78.0005025 L54.9251708,48.7661157 L51.1709143,48.7661157 L51.1709143,45.2840012 L59.2971371,45.2840012 L59.2971371,78.0005025 L62.8447947,78.0005025 L62.8447947,81.4826169 L51.1709143,81.4826169 L51.1709143,78.0005025 Z M63.9863057,77.4374637 L58.7399461,70.7308614 L58.7399461,70.5251757 L66.0940317,62.8961039 L62.5463741,62.8961039 L62.5463741,59.5677344 L73.8091436,59.5677344 L73.8091436,62.9459671 L70.7247683,62.9459671 L63.5251102,70.4711572 L67.2793667,75.1312901 C68.7714698,77.0260922 70.261486,78.5614636 72.3712988,78.5614636 C72.7824097,78.5614636 73.2456921,78.5095228 73.7089744,78.4077187 L73.7089744,81.6322066 C73.0411801,81.8378923 72.3212143,81.9916372 71.3424781,81.9916372 C68.2539291,81.9937149 66.0940317,80.2526576 63.9863057,77.4374637 Z M79.2433203,75.0814268 L79.2433203,63.0498488 L76.8747371,63.0498488 L76.8747371,59.5677344 L83.6131998,59.5677344 L83.6131998,74.6201921 C83.6131998,77.0260922 84.487593,78.5116004 87.0586014,78.5116004 C89.6817812,78.5116004 92.1505335,77.0260922 94.103832,75.3889167 L94.103832,63.0498488 L91.2010134,63.0498488 L91.2010134,59.5677344 L98.5258829,59.5677344 L98.5258829,77.9984249 L101.950416,77.9984249 L101.950416,81.4805393 L94.206088,81.4805393 L94.206088,78.4596596 C91.8917632,80.5082066 89.0118999,82.0435781 85.7209258,82.0435781 C81.7621572,82.0456557 79.2433203,79.6896189 79.2433203,75.0814268 Z M104.853235,78.0005025 L108.55532,78.0005025 L108.55532,63.0498488 L104.853235,63.0498488 L104.853235,59.5677344 L112.875115,59.5677344 L112.875115,62.640555 C115.189439,60.5920079 118.069303,59.0046956 121.360277,59.0046956 C125.319045,59.0046956 127.839969,61.3607325 127.839969,65.9668469 L127.839969,77.9984249 L131.594226,77.9984249 L131.594226,81.4805393 L119.713746,81.4805393 L119.713746,77.9984249 L123.468003,77.9984249 L123.468003,66.4280816 C123.468003,64.0221815 122.59361,62.5366733 120.022601,62.5366733 C117.399421,62.5366733 114.880585,64.1239856 112.977371,65.7112979 L112.977371,77.9984249 L116.679456,77.9984249 L116.679456,81.4805393 L104.851148,81.4805393 L104.851148,78.0005025 L104.853235,78.0005025 Z M132.449837,70.5251757 C132.449837,63.5630244 136.769632,59.0046956 143.660435,59.0046956 C150.551238,59.0046956 154.871033,63.5609468 154.871033,70.5251757 C154.871033,77.5392678 150.551238,82.0456557 143.660435,82.0456557 C136.769632,82.0456557 132.449837,77.5392678 132.449837,70.5251757 Z M150.346726,70.5251757 C150.346726,65.7632387 148.032402,62.385006 143.662522,62.385006 C139.292643,62.385006 136.976231,65.7632387 136.976231,70.5251757 C136.976231,75.2871126 139.290556,78.6653453 143.662522,78.6653453 C148.034488,78.6653453 150.346726,75.2871126 150.346726,70.5251757 Z" id="Combined-Shape"></path>
                    </g>
                </g>
            </g>
        </g>
    </g>
</svg>

<?xml version="1.0" encoding="UTF-8"?>
<svg version="1.1" width="155" height="82" viewBox="0 0 155 82" xmlns="http://www.w3.org/2000/svg">
<path fill="#615acb" d="m77.735 6.8754c-0.03369 0.067335-0.073901 0.13252-0.11955 0.19339-4.1075 5.4962-6.7978 12.129-7.7792 19.181l-0.382 2.7451-0.2467-2.7602c-0.061403-0.69059-0.09292-1.3914-0.09292-2.0831 0-6.7766 2.9631-13.211 8.1291-17.652l1.1889-1.0219-0.69771 1.3979zm-0.88084 11.397c-2.4045 5.953-3.5277 12.509-3.2468 18.959l0.047818 1.1011-0.62544-0.91091c-0.24724-0.36092-0.48742-0.73207-0.71293-1.1032-0.89823-1.4798-1.2976-3.1879-1.1547-4.9408 0.39613-4.8622 1.5101-9.5891 3.312-14.05 2.2453-5.5576 5.6002-10.663 9.7033-14.765 0.13041-0.12982 0.28908-0.23002 0.45971-0.29035 1.1971-0.42179 2.4366-0.74877 3.6836-0.97178l0.5673-0.10127-0.21844 0.52899c-0.076075 0.18477-0.19779 0.35122-0.35212 0.48158-4.947 4.1899-8.9111 9.7442-11.463 16.062zm4.6118 1.706c-2.8859 7.1074-3.8831 14.79-2.8843 22.218l0.10324 0.7687-0.61349-0.48104c-0.5385-0.42233-1.0629-0.87159-1.5584-1.3354-0.45754-0.42825-0.73195-1.002-0.7727-1.6166-0.45862-6.8925 0.6988-13.982 3.3467-20.503 2.8843-7.1025 7.4401-13.323 13.175-17.99 0.29234-0.22463 0.36353-0.24941 0.69826-0.24941 0.83302 0.0096963 1.6704 0.063026 2.4914 0.15837 0.12063 0.014006 0.2217 0.084035 0.27713 0.19285 0.054339 0.10666 0.051079 0.22625-0.0081509 0.32752-0.086399 0.14868-0.2016 0.27634-0.34179 0.37977-6.1186 4.5152-10.929 10.784-13.912 18.13zm8.8187-3.9135c0.37548 0 0.71293 0.15406 0.95093 0.43526 0.22007 0.25965 0.32495 0.58932 0.29506 0.92761s-0.19019 0.6448-0.4521 0.86297c-1.1091 0.92384-2.2828 1.6699-3.4174 2.3912-0.40809 0.25911-0.78303 0.52414-1.1455 0.78001-0.4608 0.32536-0.89605 0.63295-1.4112 0.94377-0.31951 0.19231-0.57654 0.28227-0.80911 0.28227-0.40428 0-0.77651-0.18261-1.021-0.50098-0.20758-0.26934-0.29615-0.60333-0.2505-0.94 0.045645-0.33668 0.22062-0.63565 0.49286-0.84088 0.67543-0.50959 1.3715-0.96155 2.0453-1.3979 0.2429-0.1573 0.48307-0.31298 0.71999-0.46973 1.2601-0.83442 1.5595-1.0327 3.1278-2.1795 0.25974-0.18962 0.57002-0.29412 0.87486-0.29412zm-8.6557 11.895c0.11357-0.31998 0.34668-0.57693 0.65587-0.72291 5.4089-2.5631 10.306-5.9772 14.555-10.148 0.24181-0.23702 0.56187-0.36792 0.90203-0.36792 0.34505 0 0.66837 0.13359 0.91127 0.37654 0.49775 0.49774 0.4934 1.3042-0.0086943 1.797-4.4531 4.3714-9.5849 7.9494-15.254 10.635-0.17443 0.082419-0.35972 0.12444-0.55154 0.12444-0.49177 0-0.94604-0.28389-1.158-0.72345-0.1478-0.30597-0.16628-0.65127-0.052166-0.97125zm0.70315 8.1831c-0.14346 0.052791-0.29289 0.079186-0.44395 0.079186-0.5347 0-1.0178-0.33398-1.2025-0.83173-0.119-0.31836-0.10542-0.66366 0.038037-0.97178 0.14291-0.30813 0.39885-0.54299 0.71999-0.66043 7.3896-2.7053 14.441-7.5561 20.96-14.418 0.24507-0.25803 0.57654-0.3997 0.93355-0.3997 0.32766 0 0.64011 0.12282 0.87866 0.34583 0.51459 0.48051 0.53904 1.2864 0.054339 1.7965-6.7924 7.1505-14.173 12.217-21.938 15.06zm27.022-12.598c-7.1831 8.7633-16.502 15.152-26.95 18.475-0.1277 0.04094-0.2592 0.06141-0.39178 0.06141-0.55915 0-1.0493-0.35499-1.2205-0.8829-0.10433-0.32267-0.075531-0.66689 0.080965-0.96909s0.42221-0.52576 0.74771-0.62918c9.9729-3.1723 18.875-9.2788 25.744-17.658 0.24453-0.29789 0.60751-0.46919 0.99604-0.46919 0.29724 0 0.57654 0.09804 0.80748 0.28442 0.26518 0.2144 0.43091 0.51821 0.46623 0.85597 0.03532 0.33775-0.06412 0.66904-0.27985 0.93192zm4.3303 3.1712c-3.218 4.2949-6.9782 8.1018-11.18 11.318-4.1895 3.2084-8.7339 5.7666-13.507 7.603-0.9004 0.34691-1.8432 0.52252-2.8023 0.52252-1.0221 0-2.0116-0.19877-2.9425-0.59147l-0.41298-0.17399 0.3043-0.32698c0.15867-0.17076 0.36299-0.29466 0.59067-0.35822 10.832-3.0263 20.741-9.9608 27.903-19.525 0.082052-0.11205 0.16574-0.22679 0.24942-0.34206 0.24018-0.33237 0.63033-0.5306 1.0433-0.5306 0.29778 0 0.57817 0.099656 0.81128 0.2882 0.51405 0.41532 0.60099 1.2104 0.19399 1.7717-0.074445 0.10235-0.14889 0.2047-0.22442 0.30759l-0.26898-0.16699 0.25702 0.18315-0.015215 0.021009zm1.0683 3.3727c0.17769-0.1002 0.39994-0.040401 0.526 0.12444 0.047275 0.061949 0.11792 0.19069 0.06901 0.36253l-0.020649 0.0738c-0.93463 3.2062-2.7892 6.1733-5.3633 8.5823-1.7964 1.6812-3.707 3.2418-5.679 4.6386-2.918 2.0669-6.2278 3.3091-9.5713 3.5919-0.015215 5.387e-4 -0.038581 0.001616-0.074988 0.001616-0.24724 0-0.51459-0.029089-0.62436-0.24564-0.044015-0.086728-0.048362-0.18854-0.011955-0.27904 0.046188-0.11528 0.15541-0.20685 0.32549-0.27096 8.0416-3.6927 14.965-9.3014 20.022-16.221 0.10813-0.14814 0.24344-0.2688 0.40265-0.35822zm1.4911-6.4588l0.015758 0.67766-0.53089-0.42718c-7.3287-5.8948-16.371-9.5131-25.46-10.189-0.68467-0.050636-1.2384-0.62272-1.2346-1.2751 0.0038037-0.69813 0.57817-1.2664 1.2797-1.2664 0.031517 0 0.063577 0.001616 0.09618 0.0037708 4.3178 0.31567 8.6301 1.2524 12.817 2.7839 4.1738 1.5266 8.1329 3.6108 11.768 6.1949 0.67435 0.47943 1.1009 1.2196 1.1705 2.0308 0.041298 0.48428 0.067924 0.97717 0.078792 1.4663zm-22.387-17.11c0.077162 0 0.15595 0.0070029 0.23311 0.021009 7.3369 1.3311 13.349 3.46 18.381 6.5078 0.95963 0.58124 1.7144 1.4668 2.1252 2.4925 0.24344 0.60817 0.46406 1.2357 0.65533 1.8655l0.29126 0.95778-0.79063-0.6211c-5.5627-4.3709-12.062-7.0519-21.073-8.6927-0.67815-0.1239-1.1683-0.752-1.0933-1.4011 0.074445-0.64427 0.6211-1.1296 1.2715-1.1296zm4.3895-1.4237c-0.68087-0.13036-1.1683-0.76493-1.0852-1.414 0.080422-0.63619 0.62707-1.1156 1.271-1.1156 0.080965 0 0.16302 0.0080803 0.24344 0.023163 0.28854 0.055484 0.57436 0.11151 0.85801 0.16969 2.5925 0.52953 5.016 1.5256 7.2043 2.9611 1.2938 0.84897 2.48 1.8374 3.525 2.9385l1.3916 1.4663-1.7758-0.97717c-2.3676-1.3031-5.8295-2.9412-11.632-4.052zm-97.73 72.904h3.7021v-14.951h-3.7021v-3.4821h8.0219v3.0728c2.3143-2.0485 5.1942-3.6359 8.4852-3.6359 3.9588 0 6.4797 2.356 6.4797 6.9622v12.032h3.7543v3.4821h-11.878v-3.4821h3.7543v-11.57c0-2.4059-0.87439-3.8914-3.4454-3.8914-2.6232 0-5.142 1.5873-7.0452 3.1746v12.287h3.7021v3.4821h-11.828v-3.48zm28.152-7.4234c0-6.8084 3.9087-11.57 10.491-11.57 6.8908 0 9.7707 5.325 9.7707 10.854 0 0.61498 0 1.2798-0.10226 1.9447h-15.737c0.41111 4.3007 2.8799 6.8084 7.4063 6.8084 2.8277 0 5.2964-1.0243 7.2518-2.0984v3.4821c-1.851 1.0762-4.4221 2.0485-7.8675 2.0485-7.3562 0-11.213-4.7619-11.213-11.469zm4.4221-1.9467h11.726c-0.2066-3.1227-1.5944-6.3492-5.6053-6.3492-3.7543 0.0020776-5.7096 2.8173-6.1208 6.3492zm18.081 9.3701h3.7543v-29.234h-3.7543v-3.4821h8.1262v32.717h3.5477v3.4821h-11.674v-3.4821zm12.815-0.56304l-5.2464-6.7066v-0.20569l7.3541-7.6291h-3.5477v-3.3284h11.263v3.3782h-3.0844l-7.1997 7.5252 3.7543 4.6601c1.4921 1.8948 2.9821 3.4302 5.0919 3.4302 0.41111 0 0.87439-0.051941 1.3377-0.15374v3.2245c-0.66779 0.20569-1.3878 0.35943-2.3665 0.35943-3.0885 0.0020777-5.2484-1.739-7.3562-4.5542zm15.257-2.356v-12.032h-2.3686v-3.4821h6.7385v15.052c0 2.4059 0.87439 3.8914 3.4454 3.8914 2.6232 0 5.0919-1.4855 7.0452-3.1227v-12.339h-2.9028v-3.4821h7.3249v18.431h3.4245v3.4821h-7.7443v-3.0209c-2.3143 2.0485-5.1942 3.5839-8.4852 3.5839-3.9588 0.0020776-6.4776-2.354-6.4776-6.9622zm25.61 2.9191h3.7021v-14.951h-3.7021v-3.4821h8.0219v3.0728c2.3143-2.0485 5.1942-3.6359 8.4852-3.6359 3.9588 0 6.4797 2.356 6.4797 6.9622v12.032h3.7543v3.4821h-11.88v-3.4821h3.7543v-11.57c0-2.4059-0.87439-3.8914-3.4454-3.8914-2.6232 0-5.142 1.5873-7.0452 3.1746v12.287h3.7021v3.4821h-11.828v-3.48h0.002087zm27.597-7.4753c0-6.9622 4.3198-11.52 11.211-11.52s11.211 4.5563 11.211 11.52c0 7.0141-4.3198 11.52-11.211 11.52s-11.211-4.5064-11.211-11.52zm17.897 0c0-4.7619-2.3143-8.1402-6.6842-8.1402-4.3699 0-6.6863 3.3782-6.6863 8.1402 0 4.7619 2.3143 8.1402 6.6863 8.1402s6.6842-3.3782 6.6842-8.1402z"/>
</svg>
